X: 20579
T: John O'Dwyer Of The Glen
R: hornpipe
M: 4/4
K: Adorian
|:d>e|f3 g a2 (3ge^c|f>de>^c d>cd>e|(3fed (3cAG A2 A>B|
c3 d e>d (3cAG|A>d (3cAF G2 (3GFG|A3 A A2:|
|:A>B|c2 A>B c2 (3def|g2 (3efg a3 b|a>b (3agf g3 a|
f2 f>g a>f (3gfe|f>de>^c d>ed>=c|(3ABA G>c A2 d>e|
f2 g>e a2 g>e|f>de>^c d3 e|(3fed (3cAG A2 A>B|
c2 c>d e2 (3cAG|(3AdB (3cAF G2 F>G|A2 A2 d2:|

